X: 20739
T: Johnny Going To Ceili
R: reel
M: 4/4
K: Dmixolydian
AG~G2 Addc|ABAG EDEG|AG~G2 AddB|cBAG EGD2:|
eg~g2 edcd|edeg a3g|eg~g2 edcA|GAcd edd2|
eg~g2 edcd|edeg a2ag|eaag ~e3d|^cAcd e2d2||

